Simply-Cyan-Circles/scalable/places/folder-video.svg

<svg xmlns="http://www.w3.org/2000/svg" width="48" height="48" viewBox="0 0 12.7 12.7"><path fill="#5beedc" d="M6.344.073a6.29 6.29 0 0 0-6.289 6.29 6.29 6.29 0 0 0 6.29 6.288 6.29 6.29 0 0 0 6.288-6.289A6.29 6.29 0 0 0 6.344.072zm-.018.936a5.407 5.407 0 0 1 5.407 5.407 5.407 5.407 0 0 1-5.407 5.407A5.407 5.407 0 0 1 .92 6.416 5.407 5.407 0 0 1 6.326 1.01zM2.892 2.78a.177.177 0 0 0-.178.175v7.05c0 .097.08.176.178.176h6.771a.177.177 0 0 0 .178-.176v-7.05a.177.177 0 0 0-.178-.176H2.892zm1.192.764h4.332v2.73H4.084v-2.73zm-.959.057h.548v.275h-.548V3.6zm5.757 0h.548v.275h-.548V3.6zm-5.757.823h.548v.274h-.548v-.274zm5.757 0h.548v.274h-.548v-.274zm-5.757.822h.548v.274h-.548v-.274zm5.757 0h.548v.274h-.548v-.274zm-5.757.823h.548v.274h-.548v-.274zm5.757 0h.548v.274h-.548v-.274zm-4.798.776h4.332v2.573H4.084V6.844zm-.959.046h.548v.274h-.548V6.89zm5.757 0h.548v.274h-.548V6.89zm-5.757.823h.548v.273h-.548v-.273zm5.757 0h.548v.273h-.548v-.273zm-5.757.822h.548v.274h-.548v-.274zm5.757 0h.548v.274h-.548v-.274zm-5.757.822h.548v.275h-.548v-.275zm5.757 0h.548v.275h-.548v-.275z"/></svg>

<?xml version="1.0" encoding="UTF-8" standalone="no"?>
<svg
   xmlns:dc="http://purl.org/dc/elements/1.1/"
   xmlns:cc="http://creativecommons.org/ns#"
   xmlns:rdf="http://www.w3.org/1999/02/22-rdf-syntax-ns#"
   xmlns:svg="http://www.w3.org/2000/svg"
   xmlns="http://www.w3.org/2000/svg"
   xmlns:sodipodi="http://sodipodi.sourceforge.net/DTD/sodipodi-0.dtd"
   xmlns:inkscape="http://www.inkscape.org/namespaces/inkscape"
   width="48"
   height="48"
   viewBox="0 0 12.7 12.7"
   version="1.1"
   id="svg4"
   sodipodi:docname="folder-video.svg"
   inkscape:version="0.92.4 (5da689c313, 2019-01-14)">
  <metadata
     id="metadata10">
    <rdf:RDF>
      <cc:Work
         rdf:about="">
        <dc:format>image/svg+xml</dc:format>
        <dc:type
           rdf:resource="http://purl.org/dc/dcmitype/StillImage" />
        <dc:title></dc:title>
      </cc:Work>
    </rdf:RDF>
  </metadata>
  <defs
     id="defs8" />
  <sodipodi:namedview
     pagecolor="#ffffff"
     bordercolor="#666666"
     borderopacity="1"
     objecttolerance="10"
     gridtolerance="10"
     guidetolerance="10"
     inkscape:pageopacity="0"
     inkscape:pageshadow="2"
     inkscape:window-width="1085"
     inkscape:window-height="480"
     id="namedview6"
     showgrid="false"
     inkscape:zoom="4.9166667"
     inkscape:cx="2.1355932"
     inkscape:cy="24"
     inkscape:window-x="0"
     inkscape:window-y="25"
     inkscape:window-maximized="0"
     inkscape:current-layer="svg4" />
  <path
     d="m 6.344,0.073 a 6.29,6.29 0 0 0 -6.289,6.29 6.29,6.29 0 0 0 6.29,6.288 6.29,6.29 0 0 0 6.288,-6.289 6.29,6.29 0 0 0 -6.289,-6.29 z M 6.326,1.009 A 5.407,5.407 0 0 1 11.733,6.416 5.407,5.407 0 0 1 6.326,11.823 5.407,5.407 0 0 1 0.92000003,6.416 5.407,5.407 0 0 1 6.326,1.01 Z M 2.892,2.78 A 0.177,0.177 0 0 0 2.714,2.955 v 7.05 c 0,0.097 0.08,0.176 0.178,0.176 h 6.7710003 a 0.177,0.177 0 0 0 0.178,-0.176 v -7.05 a 0.177,0.177 0 0 0 -0.178,-0.176 H 2.892 Z m 1.192,0.764 h 4.332 v 2.73 H 4.084 Z M 3.125,3.601 H 3.673 V 3.876 H 3.125 V 3.6 Z m 5.757,0 H 9.43 V 3.876 H 8.882 V 3.6 Z M 3.125,4.424 H 3.673 V 4.698 H 3.125 Z m 5.757,0 H 9.43 V 4.698 H 8.882 Z M 3.125,5.246 H 3.673 V 5.52 H 3.125 Z m 5.757,0 H 9.43 V 5.52 H 8.882 Z M 3.125,6.069 H 3.673 V 6.343 H 3.125 Z m 5.757,0 H 9.43 V 6.343 H 8.882 Z M 4.084,6.845 H 8.416 V 9.418 H 4.084 V 6.844 Z M 3.125,6.891 H 3.673 V 7.165 H 3.125 V 6.89 Z m 5.757,0 H 9.43 V 7.165 H 8.882 V 6.89 Z M 3.125,7.714 H 3.673 V 7.987 H 3.125 Z m 5.757,0 H 9.43 V 7.987 H 8.882 Z M 3.125,8.536 H 3.673 V 8.81 H 3.125 Z m 5.757,0 H 9.43 V 8.81 H 8.882 Z M 3.125,9.358 H 3.673 V 9.633 H 3.125 Z m 5.757,0 H 9.43 V 9.633 H 8.882 Z"
     id="path2"
     inkscape:connector-curvature="0"
     style="fill:#5beedc" />
</svg>
